X: 30107
T: Old As The Hills
R: jig
M: 6/8
K: Amajor
c2c edc|dcd az2|c2c edc|dcd Bcd|
c2c edc|dcd az2|cee Bcd|cAA A3||

